X: 20352
M: 3/4
L: 1/8
K: C
EGc2ec | AcGcE2 | g2ageg | decdAc |\
EGc2ec | AcGcE2 | gaegde | c4 :|
|: g2 |\
egg2eg | dgg2dg | cgg2cg | Bgg2Bg |\
egdgcg | Bgcgda | ga eg de | c4 :|


